X: 17
T:Position Studies
C:Grisman
N:Transcribed by Wendy Anthony  from David Grisman tab on Mandozine
L:1/8
Q:1/4=120
M:16/8
K:G
"First Position -"G,A,B,CDEFGABcdefg2 | z8z8 | 
K:A
"First Position -"A,B,CDEFGABcdefgaz | 
K:Bb
"Second Position "B,CDEFGABcdefgabz | "Second Position"CDEFGABcdefgabc'z | z8z8 | 
K:C
"Third Position -"CDEFGABcdefgabc'z | 
K:D
"Third Position -"DEFGABcdefgabc'd'z | z8z8 | "Fourth Position "DEFGABcdefgabc'd'z | 
K:E
"Fourth Position "EFGABcdefgabc'd'e'z | z8z8 | "Fifth Position K"EFGABcdefgabc'd'e'z | 
K:F
"Fifth Position K"FGABcdefgabc'd'e'f'z | z8z8 | "Sixth Position K"FGABcdefgabc'd'e'f'z | 
K:G
"Sixth Position K"GABcdefgabc'd'e'f'g'z |

